!!!COM: Bach, Johann Sebastian
!!!CDT: 1685/3//-1750/7/28/
!!!OTL@@DE: Komm, heiliger Geist, Herre Gott
!!!AGN: 4-Part Chorale
!!!SCT: BH 069
!!!SCT: BWV 226
!!!ONB: Transposed down a minor third from original BWV 226 chorale.
**harm	**root	**kern	**kern	**kern	**kern
!	!	!bass	!tenor	!alto	!soprno
*	*Iorgan	*Iorgan	*Iorgan	*Iorgan	*Iorgan
*	*	*clefF4	*clefF4	*clefG2	*clefG2
*M4/4	*M4/4	*M4/4	*M4/4	*M4/4	*M4/4
*met(c)	*met(c)	*met(c)	*met(c)	*met(c)	*met(c)
*MM60	*MM60	*MM60	*MM60	*MM60	*MM60
*k[f#c#g#d#a#]	*k[f#c#g#d#a#]	*k[f#c#g#d#a#]	*k[f#c#g#d#a#]	*k[f#c#g#d#a#]	*k[f#c#g#d#a#]
*B:	*B:	*B:	*B:	*B:	*B:
I	4GG	4B	4d#	4b	4ff#
=1	=1	=1	=1	=1	=1
IV	4CC	4E	8e	4b	4gg#
.	.	.	8d#	.	.
V	4DD	4F#	4c#	4a#	8ff#
.	.	.	.	.	8ee
vi	4EE	4G#	4B	4b	8dd#
.	.	.	.	.	8ee
Ib	4GG	8D#	4B	8f#	4ff#
.	.	8E	.	8g#	.
=2	=2	=2	=2	=2	=2
V;	2DD;	2F#;	2f#;	2a#;	2cc#;
I	4GG	8B	4f#	4b	4dd#
.	.	8A#	.	.	.
viib/V	4CC#	4G#	4B	4b	4ee#
=3	=3	=3	=3	=3	=3
V;	2DD;	2F#;	2c#;	2a#;	2ff#;
r	4r	4r	4r	4r	4r
Ib	4GG	4D#	4B	4b	4ff#
=4	=4	=4	=4	=4	=4
IV	4CC	4E	8e	4b	4gg#
.	.	.	8d#	.	.
V	4DD	4F#	8c#	8a#	4ff#
.	.	.	8B	8g#	.
V7d	8DD	8E	8A#	4f#	8cc#
Ib	8GG	8D#	8B	.	8dd#
ii	4AA	4C#	4E	8g#	4ee
.	.	.	.	8a#	.
=5	=5	=5	=5	=5	=5
Ib	4GG	8D#	4F#	4b	4dd#
.	.	8E	.	.	.
V	4DD	4F#	8f#	4a#	4cc#
.	.	.	8e	.	.
I;	4GG;	4BB;	4d#;	4f#;	4b;
I	4GG	4B	4d#	4f#	4b
=6	=6	=6	=6	=6	=6
Vb	4DD	4A#	4c#	4f#	8cc#
.	.	.	.	.	8dd#
IVb	4CC	8G#	8B	4g#	4ee
.	.	8A#	8c#	.	.
I	4GG	4B	4d#	8f#	8dd#
.	.	.	.	8g#	8ee
Vb	4DD	8A#	8c#	[4a#	[4ff#
.	.	8G#	8B	.	.
!!linebreak: 4
=7	=7	=7	=7	=7	=7
Vb	4DD	8A#	4c#	8a#]	4ff#]
.	.	8G#	.	8b	.
V	4DD	8F#	4f#	8a#	4cc#
.	.	8E#	.	8g#	.
Ib	4GG	8D#	4f#	8f#	8b
.	.	8BB	.	8d#	8a#
V/V	4AA	4C#	8c#	4e#	4g#
.	.	.	8B	.	.
=8	=8	=8	=8	=8	=8
V;	2DD;	2F#;	2A#;	2c#;	2f#;
r	4r	4r	4r	4r	4r
V	4DD	8F#	4A#	4c#	4f#
.	.	8E	.	.	.
=9	=9	=9	=9	=9	=9
Ib	8GG	8D#	4B	8f#	4b
IV	8CC	8E	.	8g#	.
viib	4FF#	8D#	4e	4a#	4cc#
.	.	8C#	.	.	.
I	4GG	4BB	8f#	4.b	8dd#
.	.	.	8e	.	8ee
I	8GG	8B	8d#	.	[4ff#
vb	8DD	8A	8c#	8cc#	.
=10	=10	=10	=10	=10	=10
V7/ii	4EE	4G#	8B#	4.dd#	4ff#]
.	.	.	8A#y	.	.
ii	4AA	4C#	4G#	.	4ee
.	.	.	.	8cc#	.
V/vi	4BB	4D#	4F##	8b	4dd#
.	.	.	.	8a#	.
iib	4AA	4E	4G#	4g#	4cc#
=11	=11	=11	=11	=11	=11
V/vi;	2BB;	2D#;	2A#;	2f##;	2dd#;
r	4r	4r	4r	4r	4r
vi	4EE	4G#	8B	4b	8dd#
.	.	.	8c#	.	8ee
=12	=12	=12	=12	=12	=12
viib/V/V	4GG#	4d#	4d#	8a#	4ff#
.	.	.	.	8b#	.
V/V	4AA	8c#	4e#	4cc#	4gg#
.	.	8B	.	.	.
Vb	4DD	8A#	4.f#	8cc#	4ff#
.	.	8G#	.	8b	.
V	4DD	4F#	.	8a#	4cc#
.	.	.	8e	8g#	.
!!linebreak: 4
=13	=13	=13	=13	=13	=13
I	4GG	8B	8d#	4f#	4dd#
.	.	8A#	8c#	.	.
viib/V	4CC#	4G#	4B	4g#	4ee#
V;	4DD;	4F#;	4c#;	4a#;	4ff#;
I	4GG	4B	4d#	8b	4ff#
.	.	.	.	8a#	.
=14	=14	=14	=14	=14	=14
IV	4CC	4E	4e	8g#	4gg#
.	.	.	.	8a#	.
Ib	4GG	8D#	4f#	4b	4ff#
.	.	8E	.	.	.
V	4DD	4F#	4f#	4a#	8cc#
.	.	.	.	.	8dd#
IVb	4CC	8G#	8B	4g#	4ee
.	.	8A#	8c#	.	.
=15	=15	=15	=15	=15	=15
I	8GG	8B	8d#	8f#	4dd#
IV7	8CC	8E	8B	8g#	.
V	4DD	4F#	8f#	4a#	4cc#
.	.	.	8e	.	.
I;	4GG;	4BB;	4d#;	4f#;	4b;
IV	4CC	8E	4e	4g#	4b
.	.	8D#	.	.	.
=16	=16	=16	=16	=16	=16
ii	4AA	4C#	8e	4g#	8cc#
.	.	.	8d#	.	8dd#
ii	4AA	4c#	4c#	8g#	4ee
.	.	.	.	8a#	.
vi	4EE	4G#	8d#	[2b	8dd#
.	.	.	8c#	.	8ee
Ib	4GG	8D#	8B	.	[4ff#
.	.	8E	8c#	.	.
=17	=17	=17	=17	=17	=17
I	4GG	8F#	8d#	4b]	4ff#]
.	.	8G#	8e#	.	.
Vb	4DD	8A#	2f#	4a#	4cc#
.	.	8F#	.	.	.
Ib	4GG	8d#	.	8b	8b
.	.	8B	.	[8f#	8a#
V/V	4AA	4c#	8c#	8f#]	4g#
.	.	.	8B	8e#	.
=18	=18	=18	=18	=18	=18
V;	2DD;	2F#;	2A#;	2c#;	2f#;
r	4r	4r	4r	4r	4r
iii	4BB	4D#	4A#	8f#	4f#
.	.	.	.	8e	.
!!linebreak: 4
=19	=19	=19	=19	=19	=19
vi	8EE	4G#	8B	8d#	4b
IVb	8CC	.	8e	8g#	.
Vb	4DD	4A#	8d#	8f#	4cc#
.	.	.	8c#	8e	.
I	2GG	8B	4.B	4.d#	8dd#
.	.	8c#	.	.	8ee
.	.	8d#	.	.	[4ff#
.	.	8c#	8c#	16e	.
.	.	.	.	16f#	.
=20	=20	=20	=20	=20	=20
V7b/ii	4EE	8B#	4.d#	4g#	4ff#]
.	.	8G#	.	.	.
ii	4AA	4c#	.	4g#	4ee
.	.	.	8c#	.	.
vi	4EE	8G#	8B	4g#	4dd#
.	.	8F#	8A#	.	.
iib	4AA	8E	4G#	8g#	4cc#
.	.	8D#	.	8f#	.
=21	=21	=21	=21	=21	=21
ii7b	4AA	8E	2c#	2e	4g#
.	.	8C#	.	.	.
V7	4DD	4F#	.	.	4a#
I;	4GG;	4BB;	4B;	4d#;	4b;
V	4DD	4F#	4A#	4f#	4cc#
=22	=22	=22	=22	=22	=22
I	4GG	8BB	2.B	[2f#	4dd#
.	.	8C#	.	.	.
Ib	4GG	4D#	.	.	4b
IV	2CC	2E	.	8f#]	2g#
.	.	.	.	8d#	.
.	.	.	8B	4e	.
.	.	.	8A#	.	.
=23	=23	=23	=23	=23	=23
I;	4GG;	4B;	4B;	4d#;	4f#;
Vb	4DD	4A#	2c#	2f#	8cc#
.	.	.	.	.	16dd#
.	.	.	.	.	16ee
I	4GG	8B	.	.	2dd#
.	.	8A#	.	.	.
vi	4EE	8G#	[4B	[4g#	.
.	.	8F#	.	.	.
=24	=24	=24	=24	=24	=24
ii7b	4AA	8E	4B]	4g#]	2cc#
.	.	8C#	.	.	.
V	4DD	4F#	16A#	8f#	.
.	.	.	16G#	.	.
.	.	.	8A#	8e	.
I;	4GG;	4BB;	4F#;	4d#;	4b;
====	====	====	====	====	====
*-	*-	*-	*-	*-	*-
!!chor2scor: -l 4 -s 0.6 -o %b.pmx
!!!ONB1: changed line measure 6, beat 2: vi chord to a IVb chord, since 
!!!ONB2: there is no B and the C is not dissonant and does not resolve.
!!!ONB3: Now m.6, b.2 matches the analysis of m.14, b.4.
!!!YEC: Copyright 1994, David Huron
!!!YEC: Changes/Additions 2001 by Craig Stuart Sapp
!!!YEN: United States of America
!!!SMA: 371 Bach Chorales, edited by Ludwig Erk, C.F. Peters
!!!PDT: 1850, 1865
